src/assets/img/icons/duotone-icons/Files/Folder-check.svg

<?xml version="1.0" encoding="UTF-8"?>
<svg width="24px" height="24px" viewBox="0 0 24 24" version="1.1" xmlns="http://www.w3.org/2000/svg" xmlns:xlink="http://www.w3.org/1999/xlink">
    <!-- Generator: Sketch 52.2 (67145) - http://www.bohemiancoding.com/sketch -->
    <title>Stockholm-icons / Files / Folder-check</title>
    <desc>Created with Sketch.</desc>
    <g id="Stockholm-icons-/-Files-/-Folder-check" stroke="none" stroke-width="1" fill="none" fill-rule="evenodd">
        <rect id="bound" x="0" y="0" width="24" height="24"></rect>
        <path d="M3.5,21 L20.5,21 C21.3284271,21 22,20.3284271 22,19.5 L22,8.5 C22,7.67157288 21.3284271,7 20.5,7 L10,7 L7.43933983,4.43933983 C7.15803526,4.15803526 6.77650439,4 6.37867966,4 L3.5,4 C2.67157288,4 2,4.67157288 2,5.5 L2,19.5 C2,20.3284271 2.67157288,21 3.5,21 Z" id="Combined-Shape" fill="#335EEA" opacity="0.3"></path>
        <path d="M10.875,16.75 C10.6354167,16.75 10.3958333,16.6541667 10.2041667,16.4625 L8.2875,14.5458333 C7.90416667,14.1625 7.90416667,13.5875 8.2875,13.2041667 C8.67083333,12.8208333 9.29375,12.8208333 9.62916667,13.2041667 L10.875,14.45 L14.0375,11.2875 C14.4208333,10.9041667 14.9958333,10.9041667 15.3791667,11.2875 C15.7625,11.6708333 15.7625,12.2458333 15.3791667,12.6291667 L11.5458333,16.4625 C11.3541667,16.6541667 11.1145833,16.75 10.875,16.75 Z" id="check-path" fill="#335EEA"></path>
    </g>
</svg>

<svg width="24" height="24" viewBox="0 0 24 24" xmlns="http://www.w3.org/2000/svg"><g fill="none" fill-rule="evenodd"><path d="M0 0h24v24H0z"/><path d="M3.5 21h17a1.5 1.5 0 001.5-1.5v-11A1.5 1.5 0 0020.5 7H10L7.44 4.44A1.5 1.5 0 006.378 4H3.5A1.5 1.5 0 002 5.5v14A1.5 1.5 0 003.5 21z" fill="#335EEA" opacity=".3"/><path d="M10.875 16.75a.946.946 0 01-.67-.288l-1.918-1.916a.926.926 0 010-1.342c.384-.383 1.007-.383 1.342 0l1.246 1.246 3.162-3.162a.926.926 0 011.342 0 .926.926 0 010 1.341l-3.833 3.833a.946.946 0 01-.671.288z" fill="#335EEA"/></g></svg>
